images/brands/sivo.svg

<svg fill="none" height="180" viewBox="0 0 520 180" width="520" xmlns="http://www.w3.org/2000/svg" xmlns:xlink="http://www.w3.org/1999/xlink"><clipPath id="a"><path d="m145 32h229.096v100h-229.096z"/></clipPath><mask id="b" height="100" maskUnits="userSpaceOnUse" width="230" x="145" y="32"><path d="m374.096 32h-229.096v100h229.096z" fill="#fff"/></mask><g clip-path="url(#a)"><g mask="url(#b)"><path d="m251.203 68.4022h-19.29l26.876 63.5978 9.609-22.875z" fill="#9c77b8"/><path d="m268.398 109.125-9.608 22.875h19.217z" fill="#0bc9cd"/><path d="m223.099 68.4729h-17.845v63.5271h17.845z" fill="#7050a3"/><path d="m214.502 49.5637c4.948 0 8.959-3.9318 8.959-8.7818 0-4.8501-4.011-8.7819-8.959-8.7819s-8.959 3.9318-8.959 8.7819c0 4.85 4.011 8.7818 8.959 8.7818z" fill="#0bc9cd"/><path d="m182.713 95.9517c-2.962-1.2039-6.069-2.1955-9.175-3.0455-2.818-.6373-5.636-1.5579-8.309-2.6909-1.445-.5667-2.384-1.9831-2.312-3.5413-.144-.9915.217-1.983.867-2.6912.795-.7082 1.734-1.204 2.818-1.4873 1.3-.354 2.673-.4958 4.046-.4958 2.167.0709 4.334.6376 6.213 1.6998 2.384 1.1333 4.624 2.6912 6.502 4.5327l1.662 1.6288 9.32-10.1983-1.228-1.4164c-2.89-3.4703-6.792-6.0906-11.126-7.5779-3.829-1.4164-7.947-2.1955-12.066-2.1955-3.829 0-7.586.7791-11.054 2.2664-3.323 1.4164-6.285 3.6119-8.525 6.374-2.239 2.9037-3.468 6.4446-3.323 10.0565 0 4.5325 1.228 8.2861 3.612 10.9774 2.312 2.6208 5.202 4.6738 8.525 5.9488 3.179 1.275 6.358 2.337 9.682 3.258h.072c1.878.425 3.757.921 5.635 1.558 1.3.425 2.457 1.062 3.468 1.912.65.638 1.012 1.558.939 2.479.073.991-.216 1.983-.867 2.762-.722.779-1.661 1.416-2.673 1.7-1.084.425-2.312.566-3.468.637-2.89.142-5.707-.425-8.308-1.629-2.312-1.133-4.407-2.762-6.141-4.674l-1.445-1.629-11.054 9.278 1.3 1.629c2.963 3.753 6.936 6.657 11.488 8.286 4.19 1.487 8.669 2.266 13.221 2.266 3.757 0 7.514-.779 10.982-2.266 3.395-1.417 6.357-3.683 8.669-6.516 2.384-2.974 3.613-6.728 3.468-10.481 0-4.604-1.156-8.287-3.396-10.907-2.167-2.6203-4.912-4.6033-8.019-5.8073z" fill="#7050a3"/><path d="m304.883 68.4022h-19.29l-17.195 40.7228 9.609 22.875z" fill="#7050a3"/><path d="m341.657 68.4022c-17.917 0-32.439 14.2351-32.439 31.7988 0 17.564 14.522 31.799 32.439 31.799s32.439-14.235 32.439-31.799c0-17.5637-14.522-31.7988-32.439-31.7988zm0 46.1048c-8.092 0-14.594-6.374-14.594-14.306 0-7.9318 6.502-14.3058 14.594-14.3058s14.594 6.374 14.594 14.3058c0 7.861-6.502 14.306-14.594 14.306z" fill="#0bc9cd"/></g></g></svg>

<svg width="520" height="180" viewBox="0 0 520 180" fill="none" xmlns="http://www.w3.org/2000/svg">
<g clip-path="url(#clip0_248_4915)">
<mask id="mask0_248_4915" style="mask-type:luminance" maskUnits="userSpaceOnUse" x="145" y="32" width="230" height="100">
<path d="M374.096 32H145V132H374.096V32Z" fill="white"/>
</mask>
<g mask="url(#mask0_248_4915)">
<path d="M251.203 68.4022H231.913L258.789 132L268.398 109.125L251.203 68.4022Z" fill="#9C77B8"/>
<path d="M268.398 109.125L258.79 132H278.007L268.398 109.125Z" fill="#0BC9CD"/>
<path d="M223.099 68.4729H205.254V132H223.099V68.4729Z" fill="#7050A3"/>
<path d="M214.502 49.5637C219.45 49.5637 223.461 45.6319 223.461 40.7819C223.461 35.9318 219.45 32 214.502 32C209.554 32 205.543 35.9318 205.543 40.7819C205.543 45.6319 209.554 49.5637 214.502 49.5637Z" fill="#0BC9CD"/>
<path d="M182.713 95.9517C179.751 94.7478 176.644 93.7562 173.538 92.9062C170.72 92.2689 167.902 91.3483 165.229 90.2153C163.784 89.6486 162.845 88.2322 162.917 86.674C162.773 85.6825 163.134 84.691 163.784 83.9828C164.579 83.2746 165.518 82.7788 166.602 82.4955C167.902 82.1415 169.275 81.9997 170.648 81.9997C172.815 82.0706 174.982 82.6373 176.861 83.6995C179.245 84.8328 181.485 86.3907 183.363 88.2322L185.025 89.861L194.345 79.6627L193.117 78.2463C190.227 74.776 186.325 72.1557 181.991 70.6684C178.162 69.252 174.044 68.4729 169.925 68.4729C166.096 68.4729 162.339 69.252 158.871 70.7393C155.548 72.1557 152.586 74.3512 150.346 77.1133C148.107 80.017 146.878 83.5579 147.023 87.1698C147.023 91.7023 148.251 95.4559 150.635 98.1472C152.947 100.768 155.837 102.821 159.16 104.096C162.339 105.371 165.518 106.433 168.842 107.354H168.914C170.792 107.779 172.671 108.275 174.549 108.912C175.849 109.337 177.006 109.974 178.017 110.824C178.667 111.462 179.029 112.382 178.956 113.303C179.029 114.294 178.74 115.286 178.089 116.065C177.367 116.844 176.428 117.481 175.416 117.765C174.332 118.19 173.104 118.331 171.948 118.402C169.058 118.544 166.241 117.977 163.64 116.773C161.328 115.64 159.233 114.011 157.499 112.099L156.054 110.47L145 119.748L146.3 121.377C149.263 125.13 153.236 128.034 157.788 129.663C161.978 131.15 166.457 131.929 171.009 131.929C174.766 131.929 178.523 131.15 181.991 129.663C185.386 128.246 188.348 125.98 190.66 123.147C193.044 120.173 194.273 116.419 194.128 112.666C194.128 108.062 192.972 104.379 190.732 101.759C188.565 99.1387 185.82 97.1557 182.713 95.9517Z" fill="#7050A3"/>
<path d="M304.883 68.4022H285.593L268.398 109.125L278.007 132L304.883 68.4022Z" fill="#7050A3"/>
<path d="M341.657 68.4022C323.74 68.4022 309.218 82.6373 309.218 100.201C309.218 117.765 323.74 132 341.657 132C359.574 132 374.096 117.765 374.096 100.201C374.096 82.6373 359.574 68.4022 341.657 68.4022ZM341.657 114.507C333.565 114.507 327.063 108.133 327.063 100.201C327.063 92.2692 333.565 85.8952 341.657 85.8952C349.749 85.8952 356.251 92.2692 356.251 100.201C356.251 108.062 349.749 114.507 341.657 114.507Z" fill="#0BC9CD"/>
</g>
</g>
<defs>
<clipPath id="clip0_248_4915">
<rect width="229.096" height="100" fill="white" transform="translate(145 32)"/>
</clipPath>
</defs>
</svg>
